X:236
T: O DU DEUTSCHLAND ICH MUSS MARSCHIEREN
N: E1375
O: Europa, Mitteleuropa, Deutschland
R: Staende -, Soldaten -, Kriegs - Lied
M: 3/4
L: 1/8
K: G
GA | B2BBcA | edd2
Bd | dcc2dc | B4
GA | B2BBcA | edd2
Bd | dcc2dc | B4
dB | BAA2ec | cBB2
dB | BAA2ec | cBB2
GA | B2B2cA | e2d2
Bd | dcc2dc | B4

